X: 6
T: BARNDANCE: If There Weren't Any Women
T: If There Weren't Any Women in the World
C: C: Trad.; S: Harry Bradley
C: Set Leaders: Mars, Tania
Z: Mars Agliullin ed.; glauber at The Session
N: https://thesession.org/members/26966/sets/94259
R: Barndance
M: 4/4
L: 1/8
Q: 1/2=86
K: Gmaj
|:Bc|de dB GA BG|EA GE D3 c|BG Bd ge dB|A2 AB A2 Bc|
de dB GA BG|EA GE D3 c|Bd dB AG AB|1 G2 GF G2:|2 G2 GF GABd||
|:e2 ef g2 gf|ed dB d2 (3Bcd|ed Bd ge dB|A2 AB A2 Bc|
de dB GA BG|EA GE D3 c|Bd dB AG AB|1 G2 GF GABd:|2 G2 GF G2||

